assets/m.svg

<svg xmlns="http://www.w3.org/2000/svg" viewBox="0 0 31.98 31.98">
  <path fill="#231f20" d="M16 0a16 16 0 1 0 16 16A16 16 0 0 0 16 0Zm9 23.5h-2v-5.06a3 3 0 1 0-6 0v1h-2v-1a3 3 0 1 0-6 0v1H7v-10h2v4.92a5 5 0 0 1 7 1 5 5 0 0 1 9 3Zm0-12h-5a4.85 4.85 0 0 1-3.51-1.5l1.41-1.38a2.91 2.91 0 0 0 2.1.89h5Z"/>
</svg>

<svg id="Layer_1" data-name="Layer 1" xmlns="http://www.w3.org/2000/svg" viewBox="0 0 31.98 31.98"><defs><style>.cls-1{fill:#231f20;}</style></defs><title>m</title><path class="cls-1" d="M16,0A16,16,0,1,0,32,16,16,16,0,0,0,16,0ZM25,23.5H23V18.44a3,3,0,1,0-6,0v1H15v-1a3,3,0,1,0-6,0v1H7v-10H9v4.92a5,5,0,0,1,7,1,5,5,0,0,1,9,3Zm0-12H20A4.85,4.85,0,0,1,16.49,10l1.41-1.38A2.91,2.91,0,0,0,20,9.51h5Z" transform="translate(0 -0.01)"/></svg>
